X:0103
T:Lady Charlote's Delight.
M:6/8
L:1/8
Q:3/8=108
I: :: :| DC
P:ABA % Aird uses a da capo
Z:Jack Campin * www.campin.me.uk * 2009
K:G
P:A
G2d dBG|(e/f/g)e dBG|G2d dBG|F2G AFD|
G2d dBG|(e/f/g)e dBG|BGB AFA|G3  G3:|
P:B
gdg gdg|gfe dcB|gdg gdg |ABA AFD|
gdg gdg|gfe agf|fed Ad^c|d3  D3:|

